X:1
T:Decision
T:Decision
T:Charles Austin Miles
T:Charles Austin Miles, 1922
T:Public Domain Courtesy of the Cyber Hymnal™
T:Public Domain Courtesy of the Cyber Hymnal™
C:Charles Austin Miles
Z:Public Domain
Z:Courtesy of the Cyber Hymnal™
%%score ( 1 2 ) ( 3 4 )
L:1/8
Q:1/4=110
M:4/4
K:Ab
V:1 treble 
V:2 treble 
V:3 bass 
V:4 bass 
V:1
 [CA]2 | [Ec]2 [Ee]2 [Ec]3 [EA] | [FB]2 [FA]2 [DF]3 [DA] | [CE]2 [CA]2 [Fd]2 [Ec]2 | [EB]6 [Ed]2 | %5
w: 1.~If|path- less for- ests|meet my view, I|will not doubt or|fear; What|
w: 2.~No|track- less plain my|faith can dim, De-|spite its vast do-|main; But|
w: 3.~No|sea too deep nor|wide for me, With|faith shall I em-|bark; For|
w: 4.~So|an- y- where and|ev- ery- where In|plea- sure, woe or|pain; My|
 [Ec]2 [Ee]2 [Ec]3 [=EA] | [FB]2 [FA]2 [DF]3 [Fd] | [Ec]3 [CA] [DB]2 [DB]2 | [CA]6 || %9
w: has been done that|I can do, My|way shall be made|clear.|
w: with my faith made|strong in Him, I’ll|sing my glad re-|frain.|
w: He Who walked on|Gal- i- lee Will|safe- ly guide my|bark.|
w: cross a- lone I|do not bear, Nor|do I trust in|vain.|
"^Refrain" [CE][DF] | [EA]2 [EA]2 [EA]>[EG] [EA]>[EB] | [Ac]2 [Ac]2 ([GB]A)[EG][EA] | B6 [EA][EB] | %13
w: ||||
w: I’ve de-|cid- ed, Lord, that I will|fol- low Thee, * An- y-|where, an- y-|
w: ||||
w: ||||
 c6 z2 | [DF] [FA]2 [DF] [FA]2 [DF]2 | [CE][CF] [CA]2 [Ec]3 [Ec] | [EB]2 [Ec]2 [=DB]2 [DF]2 | %17
w: ||||
w: where,|O- ver the land or|o- ver the sea, It|mat- ters not where|
w: ||||
w: ||||
 [EG]2 [=DA]2 [EB]2 [Ec]2 | [EA]2 [EA]2 [EA]>[EG] [EA]>[EB] | [Ec] [_Ge]3 [Fd]4 | c6 [GB]2 | A6 |] %22
w: |||||
w: it may be, For|I’ve de- cid- ed, Lord, to|fol- low Thee,|An- y-|where.|
w: |||||
w: |||||
V:2
 x2 | x8 | x8 | x8 | x8 | x8 | x8 | x8 | x6 || x2 | x8 | x8 | (E2 EE E2) x2 | (A2 AA A2) x2 | x8 | %15
 x8 | x8 | x8 | x8 | x8 | (E2 A2 G2) x2 | (A2 FF E2) |] %22
V:3
 [A,,A,]2 | [A,,A,]2 [C,A,]2 [A,,A,]3 [C,A,] | [D,D]2 [D,D]2 [D,A,]3 [D,F,] | %3
w: ~|~ ~ ~ ~|~ ~ ~ ~|
 [A,,A,]2 [A,,A,]2 [A,,A,]2 [A,,A,]2 | [E,G,]6 [E,G,]2 | [A,,A,]2 [C,A,]2 [A,,A,]3 [C,A,] | %6
w: ~ ~ ~ ~|~ ~|~ ~ ~ ~|
 [D,D]2 [D,D]2 [D,A,]3 [D,A,] | [E,A,]3 [E,A,] [E,G,]2 [E,G,]2 | [A,,A,]6 || A,A, | %10
w: ~ ~ ~ ~|~ ~ ~ ~|~|~ ~|
 [A,C]2 [A,C]2 [A,C]>[A,B,] [A,C]>[A,D] | [A,E]2 [A,E]2 ([E,D][A,C])[E,B,][E,C] | %12
w: ~ ~ ~ ~ ~ ~|~ ~ ~ * ~ ~|
 [E,D]2 [E,D][E,D] [E,D]2 [A,C][A,D] | [A,E]2 [A,E][A,E] [A,E]2 z2 | %14
w: ~ An- y- where, ~ ~|~ an- y- where|
 [D,A,D] [D,D]2 [D,A,] [D,D]2 [D,A,]2 | [A,,A,][A,,A,] [A,,A,]2 [A,,A,]3 [A,,A,] | %16
w: ~ ~ ~ ~ ~|~ ~ ~ ~ ~|
 [E,G,]2 [E,A,]2 [B,,A,]2 [B,,A,]2 | [E,B,]2 [F,B,]2 [G,B,]2 [G,B,]2 | %18
w: ~ ~ ~ ~|~ ~ ~ ~|
 [A,C]2 [A,C]2 [A,C]>[A,B,] [A,C]>[A,D] | [A,E] [A,C]3 [D,D]4 | A,2 E2 D2 [E,D]2 | C2 DD C2 |] %22
w: ~ ~ ~ ~ ~ ~|~ ~ ~|~ ~ ~ ~|~ an- y- where|
V:4
 x2 | x8 | x8 | x8 | x8 | x8 | x8 | x8 | x6 || A,A, | x8 | x8 | x8 | x8 | x8 | x8 | x8 | x8 | x8 | %19
 x8 | E,6 x2 | A,,6 |] %22

